lib/brands/icons/sketch.svg

<svg xmlns="http://www.w3.org/2000/svg" fill="none" aria-hidden="true" viewBox="0 0 48 48"><g id="sketch-Icon"><g id="sketch"><path id="vector" fill="#FDB300" fill-rule="evenodd" d="M13.8545 10.0159L24 9L34.1454 10.0159L41.9999 20.0032L24 39.857L6 20.0032L13.8545 10.0159Z" clip-rule="evenodd"/><path id="vector_2" fill="#EA6C00" d="M13.2908 20.0031L23.9999 39.8571L6 20.0031H13.2908ZM34.7092 20.0031L24.0001 39.8571L42 20.0031"/><path id="vector_3" fill="#FDAD00" fill-rule="evenodd" d="M13.291 20.0031H34.7091L24.0001 39.8571" clip-rule="evenodd"/><path id="vector_4" fill="#FDD231" d="M24.0001 9L13.8547 10.0158L13.291 20.003L24.0001 9ZM24.0003 9L34.1457 10.0158L34.7093 20.003"/><path id="vector_5" fill="#FDAD00" d="M42 20.003L34.1456 10.0157L34.7092 20.003H42ZM6 20.003L13.8544 10.0157L13.2908 20.003"/><path id="vector_6" fill="#FEEEB7" fill-rule="evenodd" d="M24.0001 9L13.291 20.003H34.7091" clip-rule="evenodd"/></g></g></svg>

<svg xmlns="http://www.w3.org/2000/svg" fill="none" aria-hidden="true" viewBox="0 0 48 48"><path fill="#FDB300" fill-rule="evenodd" d="M13.854 10.016 24 9l10.145 1.016L42 20.003 24 39.857 6 20.003l7.854-9.987Z" clip-rule="evenodd"/><path fill="#EA6C00" d="M13.29 20.003 24 39.857 6 20.003h7.29Zm21.42 0L24 39.857l18-19.854"/><path fill="#FDAD00" fill-rule="evenodd" d="M13.291 20.003h21.418L24 39.857" clip-rule="evenodd"/><path fill="#FDD231" d="m24 9-10.145 1.016-.564 9.987L24.001 9Zm0 0 10.146 1.016.563 9.987"/><path fill="#FDAD00" d="m42 20.003-7.854-9.987.563 9.987H42Zm-36 0 7.854-9.987-.563 9.987"/><path fill="#FEEEB7" fill-rule="evenodd" d="M24 9 13.291 20.003h21.418" clip-rule="evenodd"/></svg>
